actions/22x22-dark/window-next.svg

<svg xmlns="http://www.w3.org/2000/svg" viewBox="0 0 22 22">
 <defs id="defs3051">
   <style type="text/css" id="current-color-scheme">
     .ColorScheme-Text {
       color:#f2f2f2;
     }
     </style>
 </defs>
   <path
      style="fill:currentColor;fill-opacity:1;stroke:none"
      d="m3.5674267 4.2000013c-.3147665 0-.5674267.2694441-.5674267.6031279v11.5937488c0 .333684.2526602.603122.5674267.603122h14.8651473c.314771 0 .567426-.269438.567426-.603122v-11.5937488c0-.3336838-.252655-.6031279-.567426-.6031279zm6.0795876 3.2000013c.1369274 0 .2727667.055208.3772997.1656256l2.710392 2.5984358c.112917.11961.162603.279572.15328.435939.0093.156645-.04032.316319-.15328.435939l-2.710392 2.598436c-.2090605.221114-.5470109.221114-.7560766 0-.2090656-.221108-.2090656-.578893 0-.800001l2.3286666-2.234374-2.3286666-2.234373c-.2090656-.221114-.2090656-.5791546 0-.8000018.1045328-.1104208.2418549-.1656256.3787769-.1656256z"
      class="ColorScheme-Text" />
</svg>

<?xml version="1.0" encoding="UTF-8" standalone="no"?>
<svg
   xmlns:dc="http://purl.org/dc/elements/1.1/"
   xmlns:cc="http://creativecommons.org/ns#"
   xmlns:rdf="http://www.w3.org/1999/02/22-rdf-syntax-ns#"
   xmlns:svg="http://www.w3.org/2000/svg"
   xmlns="http://www.w3.org/2000/svg"
   xmlns:sodipodi="http://sodipodi.sourceforge.net/DTD/sodipodi-0.dtd"
   xmlns:inkscape="http://www.inkscape.org/namespaces/inkscape"
   viewBox="0 0 22 22"
   id="svg2"
   version="1.1"
   inkscape:version="0.91 r13725"
   sodipodi:docname="window-next.svg">
  <metadata
     id="metadata10">
    <rdf:RDF>
      <cc:Work
         rdf:about="">
        <dc:format>image/svg+xml</dc:format>
        <dc:type
           rdf:resource="http://purl.org/dc/dcmitype/StillImage" />
      </cc:Work>
    </rdf:RDF>
  </metadata>
  <sodipodi:namedview
     pagecolor="#ffffff"
     bordercolor="#666666"
     borderopacity="1"
     objecttolerance="10"
     gridtolerance="10"
     guidetolerance="10"
     inkscape:pageopacity="0"
     inkscape:pageshadow="2"
     inkscape:window-width="640"
     inkscape:window-height="480"
     id="namedview8"
     showgrid="false"
     inkscape:zoom="28.954545"
     inkscape:cx="4.8524333"
     inkscape:cy="11"
     inkscape:current-layer="svg2" />
  <defs
     id="defs3051">
    <style
       type="text/css"
       id="current-color-scheme">
      .ColorScheme-Text {
        color:#f2f2f2
      }
      </style>
  </defs>
  <path
     style="color:#f2f2f2;fill:currentColor;fill-opacity:1;stroke:none"
     class="ColorScheme-Text"
     d="M 3.5674267,4.2000013 C 3.2526602,4.2000013 3,4.4694454 3,4.8031292 L 3,16.396878 C 3,16.730562 3.2526602,17 3.5674267,17 L 18.432574,17 C 18.747345,17 19,16.730562 19,16.396878 L 19,4.8031292 C 19,4.4694454 18.747345,4.2000013 18.432574,4.2000013 l -14.8651473,0 z m 6.0795876,3.2000013 c 0.1369274,0 0.2727667,0.055208 0.3772997,0.1656256 l 2.710392,2.5984358 c 0.112917,0.11961 0.162603,0.279572 0.15328,0.435939 0.0093,0.156645 -0.04032,0.316319 -0.15328,0.435939 l -2.710392,2.598436 c -0.2090605,0.221114 -0.5470109,0.221114 -0.7560766,0 -0.2090656,-0.221108 -0.2090656,-0.578893 0,-0.800001 L 11.596904,10.600003 9.2682374,8.36563 c -0.2090656,-0.221114 -0.2090656,-0.5791546 0,-0.8000018 C 9.3727702,7.4552074 9.5100923,7.4000026 9.6470143,7.4000026 Z"
     id="path6"
     inkscape:connector-curvature="0" />
</svg>
